images/hero-bg-left.svg

<svg xmlns="http://www.w3.org/2000/svg" width="101" height="200" fill="none"><path fill="#79C8C7" d="M1 200h100V100H1z"/><path fill="#012F34" fill-rule="evenodd" d="M1 200c-55.228 0-100-44.772-100-100S-54.228 0 1 0s100 44.772 100 100S56.228 200 1 200Zm0-67c-18.225 0-33-14.775-33-33s14.775-33 33-33 33 14.775 33 33-14.775 33-33 33Z" clip-rule="evenodd"/><path fill="#F67E7E" fill-rule="evenodd" d="M101 156h-4v4h4v-4Zm-11 0h4v4h-4v-4Zm0 8h4v4h-4v-4Zm4 8h-4v4h4v-4Zm-4 8h4v4h-4v-4Zm4 8h-4v4h4v-4Zm-4 8h4v4h-4v-4Zm-3-40h-4v4h4v-4Zm0 8h-4v4h4v-4Zm-4 8h4v4h-4v-4Zm4 8h-4v4h4v-4Zm-4 8h4v4h-4v-4Zm4 8h-4v4h4v-4Zm14-32h-4v4h4v-4Zm-21-8h-4v4h4v-4Zm0 8h-4v4h4v-4Zm-4 8h4v4h-4v-4Zm4 8h-4v4h4v-4Zm-4 8h4v4h-4v-4Zm4 8h-4v4h4v-4Zm21-24h-4v4h4v-4Zm-28-16h-4v4h4v-4Zm0 8h-4v4h4v-4Zm-4 8h4v4h-4v-4Zm4 8h-4v4h4v-4Zm-4 8h4v4h-4v-4Zm4 8h-4v4h4v-4Zm28-16h-4v4h4v-4Zm-35-24h-4v4h4v-4Zm0 8h-4v4h4v-4Zm-4 8h4v4h-4v-4Zm4 8h-4v4h4v-4Zm-4 8h4v4h-4v-4Zm4 8h-4v4h4v-4Zm35-8h-4v4h4v-4Zm-42-32h-4v4h4v-4Zm0 8h-4v4h4v-4Zm-4 8h4v4h-4v-4Zm4 8h-4v4h4v-4Zm-4 8h4v4h-4v-4Zm4 8h-4v4h4v-4Zm42 0h-4v4h4v-4Zm-49-40h-4v4h4v-4Zm0 8h-4v4h4v-4Zm-4 8h4v4h-4v-4Zm4 8h-4v4h4v-4Zm-4 8h4v4h-4v-4Zm4 8h-4v4h4v-4Z" clip-rule="evenodd"/></svg>

<svg width="101" height="200" viewBox="0 0 101 200" fill="none" xmlns="http://www.w3.org/2000/svg">
<rect width="100" height="100" transform="matrix(1 0 0 -1 1 200)" fill="#79C8C7"/>
<path fill-rule="evenodd" clip-rule="evenodd" d="M1 200C-54.2285 200 -99 155.228 -99 100C-99 44.7715 -54.2285 0 1 0C56.2285 0 101 44.7715 101 100C101 155.228 56.2285 200 1 200ZM1 133C-17.2254 133 -32 118.225 -32 100C-32 81.7746 -17.2254 67 1 67C19.2254 67 34 81.7746 34 100C34 118.225 19.2254 133 1 133Z" fill="#012F34"/>
<path fill-rule="evenodd" clip-rule="evenodd" d="M101 156H97V160H101V156ZM90 156H94V160H90V156ZM90 164H94V168H90V164ZM94 172H90V176H94V172ZM90 180H94V184H90V180ZM94 188H90V192H94V188ZM90 196H94V200H90V196ZM87 156H83V160H87V156ZM87 164H83V168H87V164ZM83 172H87V176H83V172ZM87 180H83V184H87V180ZM83 188H87V192H83V188ZM87 196H83V200H87V196ZM101 164H97V168H101V164ZM80 156H76V160H80V156ZM80 164H76V168H80V164ZM76 172H80V176H76V172ZM80 180H76V184H80V180ZM76 188H80V192H76V188ZM80 196H76V200H80V196ZM101 172H97V176H101V172ZM73 156H69V160H73V156ZM73 164H69V168H73V164ZM69 172H73V176H69V172ZM73 180H69V184H73V180ZM69 188H73V192H69V188ZM73 196H69V200H73V196ZM101 180H97V184H101V180ZM66 156H62V160H66V156ZM66 164H62V168H66V164ZM62 172H66V176H62V172ZM66 180H62V184H66V180ZM62 188H66V192H62V188ZM66 196H62V200H66V196ZM101 188H97V192H101V188ZM59 156H55V160H59V156ZM59 164H55V168H59V164ZM55 172H59V176H55V172ZM59 180H55V184H59V180ZM55 188H59V192H55V188ZM59 196H55V200H59V196ZM101 196H97V200H101V196ZM52 156H48V160H52V156ZM52 164H48V168H52V164ZM48 172H52V176H48V172ZM52 180H48V184H52V180ZM48 188H52V192H48V188ZM52 196H48V200H52V196Z" fill="#F67E7E"/>
</svg>
